X:18
% %NRChange 2010-12-20
T:Fredrick's G\aangl\aat
N:ASI Lag Midwinter Fest 2006 practice CD, Track 2
Z:Transcribed by Jim Phillips, Feb 2006
R:G\aangl\aat
M:2/4
L:1/8
Q:1/4=90
K:G
%P:A
D |: "G"G2 G/F/G/A/ | GD B,D | G>F GA | B3 B | "C"c>c cc |[1 "G"B>A GB |
"A7"A>G FE | "D"DD ~E/D/E/F/ :|[2 "G"B>d BG | "D7"A{AB}c BA | "G"GG AB |]
%P:B
|:"C"[ec]>[ec] [e/c/][d/B/][e/c/][=f/d/] | [ec][cG] [GE][ec] | "G"[dB]>[ec] [dB][cG] | [B3G3D3] ~[GE] | "D"[FD]>[GE] [AF][BG] | "D7"[cA][ec] [dB][cA] |
[1 "G"[BG]>[cA] [dB][ec] | "G7" [=f3d3] [fd] :|[2 "G"[BG]>D "^ad lib."[B/E/][c/D/][B/E/][A/F/] | [B3G3] D |]
%P:A2
|:"G"[BG]>[BG] [B/G/][A/F/][B/G/][c/A/] | [BG][GD] [DB,][GD] | [BG]>[AF] [BG][cA] | [d3B3] [dB] | "C"[ec]>[ge] [ge][ge] | "G"[dB]>[cA] [BG][dB] |
[1 "A7"[e^cA]>[BG]  [AF][GE] | "D"[FD][FD] [GE][AF] :|[2 "D7"[cA][ec] [dB][cA] | [BG][BG] [cA][dB] |]
%P:B2
|:"C"[ec]>[ec] [e/c/][d/B/][e/c/][=f/d/] | [ec][cG] [GE][ec] | "G"[dB]>[ec] [dB][cG] | [B3G3D3] ~[GE] | "D"[FD]>[GE] [AF][BG] | "D7"[cA][ec] [dB][cA] |
[1 "G"[BG]>[cA] [dB][ec] | "G7" [=f3d3] [fd] :|[2 "G"[BG]>D "^ad lib."[B/E/][c/D/][B/E/][A/F/] | [B3G3] D |]

